FINK
CUT[IM WALD UND AUF DER HEIDE]
REG[Europa, Mitteleuropa, Deutschland]
KEY[F0651  08  G 6/8]
MEL[1  1_22_3  3_.10
    2  2_33_4  2_.0_
    3  3_56_5  5_43_
    5  3_3232  1_.0_
    -5  -5_.-5_.  -5_.0_
    -7  -7_-7-7_-7  -7_.0_
    2  2_22_2  5_.0_
    -5  1_12_2  3_5+1_
    5  3_3232  1_.0_ //] >>
FCT[Staende -, Jaeger - Lied]
